src/cyfwms-twn-client/public/img/flower.svg

<svg width="150" height="150" overflow="hidden" version="1.1" xml:space="preserve" xmlns="http://www.w3.org/2000/svg"><defs><clipPath id="clip0"><rect x="317" y="196" width="183" height="180"/></clipPath></defs><g transform="matrix(.7983 0 0 .74869 -251.74 -139.12)" clip-path="url(#clip0)"><path transform="matrix(1.0167 0 0 1 317 196)" d="m138.92 96.581c-5.343-2.6863-10.915-4.8888-16.65-6.5812 5.735-1.6924 11.307-3.8949 16.65-6.5812 8.673-5.1668 11.698-16.273 6.843-25.125-2.463-4.2372-6.51-7.32-11.25-8.5688-4.692-1.3307-9.723-0.7086-13.949 1.725-5.671 3.8951-10.858 8.4523-15.45 13.575 2.108-6.5376 3.424-13.305 3.918-20.156-0.323-10.102-8.774-18.028-18.876-17.705-9.6473 0.3088-17.396 8.0576-17.705 17.705 0.4852 6.8525 1.8011 13.621 3.9188 20.156-4.5938-5.1283-9.7874-9.6861-15.469-13.575-4.2261-2.4356-9.2578-3.0577-13.95-1.725-4.7383 1.2506-8.7853 4.3331-11.25 8.5688-4.8549 8.8516-1.8296 19.958 6.8438 25.125 5.3793 2.691 10.989 4.8935 16.762 6.5812-5.7283 1.6952-11.294 3.8976-16.631 6.5812-8.6734 5.1668-11.699 16.274-6.8437 25.125 2.4646 4.236 6.5116 7.318 11.25 8.569 1.6254 0.444 3.3024 0.671 4.9875 0.675 3.1475 9e-3 6.2407-0.819 8.9624-2.4 5.6815-3.889 10.875-8.447 15.469-13.575-2.1176 6.535-3.4335 13.304-3.9188 20.156 0.3235 10.102 8.7747 18.029 18.876 17.705 9.6474-0.309 17.396-8.057 17.705-17.705-0.495-6.851-1.811-13.618-3.919-20.156 4.592 5.123 9.779 9.68 15.45 13.575 2.729 1.579 5.828 2.407 8.981 2.4 1.679-3e-3 3.35-0.23 4.969-0.675 4.739-1.249 8.787-4.332 11.25-8.569 4.832-8.885 1.746-20.002-6.975-25.125zm-48.132 11.813c-10.159-0.011-18.385-8.254-18.375-18.413 0.0103-10.159 8.2539-18.385 18.412-18.375 10.151 0.0104 18.375 8.2425 18.375 18.394-0.01 10.162-8.251 18.394-18.412 18.394z" fill="#ff0" stroke="#000" stroke-width="7.5"/></g></svg>

<svg width="183" height="180" xmlns="http://www.w3.org/2000/svg" xmlns:xlink="http://www.w3.org/1999/xlink" xml:space="preserve" overflow="hidden"><defs><clipPath id="clip0"><rect x="317" y="196" width="183" height="180"/></clipPath></defs><g clip-path="url(#clip0)" transform="translate(-317 -196)"><path d="M138.919 96.5812C133.576 93.8949 128.004 91.6924 122.269 90 128.004 88.3076 133.576 86.1051 138.919 83.4188 147.592 78.252 150.617 67.1454 145.762 58.2938 143.299 54.0566 139.252 50.9738 134.512 49.725 129.82 48.3943 124.789 49.0164 120.563 51.45 114.892 55.3451 109.705 59.9023 105.113 65.025 107.221 58.4874 108.537 51.7202 109.031 44.8688 108.708 34.7672 100.257 26.8404 90.1549 27.1639 80.5076 27.4727 72.759 35.2215 72.45 44.8688 72.9352 51.7213 74.2511 58.4897 76.3688 65.025 71.775 59.8967 66.5814 55.3389 60.9 51.45 56.6739 49.0144 51.6422 48.3923 46.95 49.725 42.2117 50.9756 38.1647 54.0581 35.7 58.2938 30.8451 67.1454 33.8704 78.252 42.5438 83.4188 47.9231 86.1098 53.5331 88.3123 59.3062 90 53.5779 91.6952 48.0122 93.8976 42.675 96.5812 34.0016 101.748 30.9763 112.855 35.8313 121.706 38.2959 125.942 42.3429 129.024 47.0813 130.275 48.7067 130.719 50.3837 130.946 52.0688 130.95 55.2163 130.959 58.3095 130.131 61.0312 128.55 66.7127 124.661 71.9062 120.103 76.5 114.975 74.3824 121.51 73.0665 128.279 72.5812 135.131 72.9047 145.233 81.3559 153.16 91.4576 152.836 101.105 152.527 108.854 144.779 109.163 135.131 108.668 128.28 107.352 121.513 105.244 114.975 109.836 120.098 115.023 124.655 120.694 128.55 123.423 130.129 126.522 130.957 129.675 130.95 131.354 130.947 133.025 130.72 134.644 130.275 139.383 129.026 143.431 125.943 145.894 121.706 150.726 112.821 147.64 101.704 138.919 96.5812ZM90.7875 108.394C80.6289 108.383 72.4022 100.14 72.4125 89.9813 72.4228 79.8227 80.6664 71.5959 90.825 71.6062 100.976 71.6166 109.2 79.8487 109.2 90 109.19 100.162 100.949 108.394 90.7875 108.394Z" stroke="#000000" stroke-width="7.49998" fill="#FFFF00" transform="matrix(1.01667 0 0 1 317 196)"/></g></svg>
